X: 659
T: Ae Fond Kiss
R: waltz
M: 3/4
K: Gmajor
V:1
"G":B4 B2|"B,#m"d4 e2|"C"G4 D2|"C"E2 "G"G4|
V:2
G4 G2|F6|E4 G2|C2 B4|
V:1
"C"e4 e2|g4 e2|"D"d4 A2|"G7"B2 d4|
V:2
C6|E4 G2|F6|G2 F2 D2|
V:1
"C"c4 e2|g4 G2|"E#"G4 D2|"C"E2 G4|
V:2
E4 C2|E4 E2|E4 B2|C2 E4|
V:1
"G"B4 A2|"E#m"B4 e2|"B,#m"d4 B2|"D"A6|B6||
V:2
G4 F2|E4 G2|F6|F6|G6||

